img/features/google.svg

<svg width="100" height="100" viewBox="0 0 100 100" fill="none" xmlns="http://www.w3.org/2000/svg">
<path d="M13.2533 31.4788C16.6868 24.6458 21.9522 18.9019 28.4613 14.8883C34.9705 10.8747 42.4672 8.74948 50.1143 8.75C61.2311 8.75 70.5701 12.8379 77.7105 19.4956L65.8841 31.3261C61.6065 27.2383 56.1698 25.1551 50.1143 25.1551C39.3686 25.1551 30.273 32.4151 27.0349 42.1625C26.2099 44.6375 25.7396 47.2775 25.7396 50C25.7396 52.7225 26.2099 55.3625 27.0349 57.8375C30.2771 67.589 39.3686 74.8449 50.1143 74.8449C55.6624 74.8449 60.3855 73.3805 64.0815 70.9055C66.2242 69.4948 68.0586 67.6642 69.4737 65.5244C70.8889 63.3847 71.8555 60.9802 72.315 58.4562H50.1143V42.5008L88.9635 42.5008C89.4503 45.1985 89.7143 48.0117 89.7143 50.9364C89.7143 63.5011 85.218 74.0776 77.4135 81.2551C70.5908 87.5581 61.2518 91.25 50.1143 91.25C44.6966 91.2522 39.3317 90.1867 34.326 88.1144C29.3203 86.0422 24.7721 83.0038 20.9413 79.173C17.1104 75.3421 14.0721 70.7939 11.9998 65.7883C9.92758 60.7826 8.86209 55.4176 8.86426 50C8.86426 43.3423 10.4565 37.0475 13.2533 31.4788Z" fill="#1C1C1C"/>
</svg>

<svg width="100" height="100" viewBox="0 0 100 100" fill="none" xmlns="http://www.w3.org/2000/svg"><path d="M13.253 31.479A41.25 41.25 0 0150.114 8.75c11.117 0 20.456 4.088 27.596 10.746l-11.826 11.83c-4.278-4.088-9.714-6.17-15.77-6.17-10.745 0-19.841 7.26-23.08 17.007A24.78 24.78 0 0025.74 50c0 2.722.47 5.362 1.295 7.837 3.242 9.752 12.334 17.008 23.08 17.008 5.547 0 10.27-1.465 13.967-3.94a18.973 18.973 0 008.233-12.449h-22.2V42.501h38.848c.487 2.698.751 5.51.751 8.435 0 12.565-4.496 23.142-12.3 30.32-6.823 6.302-16.162 9.994-27.3 9.994A41.232 41.232 0 018.864 50a41.174 41.174 0 014.39-18.521z" fill="#1C1C1C"/></svg>
